X:1
T:Claim the Promise
T:Claim the Promise
T:Matthew Lindsay McPhail
T:Kate Ulmer, 1922
T:Public Domain Courtesy of the Cyber Hymnal™
T:Public Domain Courtesy of the Cyber Hymnal™
C:Matthew Lindsay McPhail
Z:Public Domain
Z:Courtesy of the Cyber Hymnal™
%%score ( 1 2 ) ( 3 4 )
L:1/8
Q:1/4=106
M:4/4
K:A
V:1 treble 
V:2 treble 
V:3 bass 
V:4 bass 
V:1
 [A,C]>[B,D] | [CE]>[^B,^D] [CE]>[=DF] [CE]2 [Ec]2 | [CA]2 [A,C]2 [CE]2 [G,B,]>[A,C] | %3
w: 1.~Ne- ver|let a shade of care rest|on your brow, You can|
w: 2.~He has|called you in the world to|shine for Him, Ne- ver|
w: 3.~When the|err- ing feet you seek to|guide a- right From the|
w: 4.~When at|last your ser- vice for Him|here shall cease, And He|
 [B,D]>[^A,C] [B,D]>[CE] [B,D]2 [DB]2 | [DG]2 [DB]2 [CA]2 [A,C]>[B,D] | %5
w: have the Sav- ior’s help- ing|hand just now; He has|
w: need the bright- ness of your|life grow dim; He has|
w: paths of dark- ness in- to|His own light, He has|
w: bids you rise to realms of|end- less peace, He has|
 [CE]>[^B,^D] [CE]>[=DF] [CE]2 [Ec]2 | [CA]2 [CE]2 [DF]2 [Fd]>[Fd] | %7
w: prom- ised if His Word you|will be- lieve, That ac-|
w: prom- ised ev- er- more He|will be- stow All that|
w: prom- ised pow’r to give you|from a- bove As you|
w: prom- ised your re- ward on|high shall be Far be-|
 [Ec]>[CE] [CA]>[Ec] [DB]>[DE] [DG]>[DB] | [CA]6 z2 ||"^Refrain" [Ec]3 [Ec] [Fd][Ec][CA][CE] | %10
w: cord- ing to your faith you shall re-|ceive.||
w: you may need to keep your light a-|glow.|Claim the prom- ise, plead it|
w: tell the sto- ry of His won- drous|love.||
w: yond all tell- ing thro’ e- ter- ni-|ty.||
 [DF]2 [DA]2 [CE]2 z2 | [Ec]3 [Ec] [Fd][Ec][CA][Ec] | B2 B2 [EB]2 z2 | %13
w: |||
w: o’er and o’er;|On His Word lay hold as|ne’er be- fore;|
w: |||
w: |||
 [Ec]3 [Ec] [Fd][Ec][CA][CE] | [DF]2 [FA]2 !fermata![Fd]4 | [Ec][Ee][Ec][CA] [DF][FA][Fd][Fc] | %16
w: |||
w: Claim the prom- ise, plead it|o’er and o’er;|Let your faith be might- i- er than|
w: |||
w: |||
 [Ec]2 [DB]2 !fermata![CA]2 |] %17
w: |
w: e’er be- fore.|
w: |
w: |
V:2
 x2 | x8 | x8 | x8 | x8 | x8 | x8 | x8 | x8 || x8 | x8 | x8 | (EE) (^DD) x4 | x8 | x8 | x8 | x6 |] %17
V:3
 [A,,E,]>[A,,E,] | [A,,A,]>[A,,A,] [A,,A,]>[A,,A,] [A,,A,]2 [A,,A,]2 | %2
w: ~ ~|~ ~ ~ ~ ~ ~|
 [A,,E,]2 [A,,E,]2 (A,E,) E,>E, | E,>E, E,>E, E,2 [E,G,]2 | %4
w: ~ ~ ~ * ~ ~|~ ~ ~ ~ ~ ~|
 [E,B,]2 [E,G,]2 [A,,A,]2 [A,,E,]>[A,,E,] | [A,,A,]>[A,,A,] [A,,A,]>[A,,A,] [A,,A,]2 [A,,A,]2 | %6
w: ~ ~ ~ ~ ~|~ ~ ~ ~ ~ ~|
 [A,,E,]2 [A,,A,]2 [D,A,]2 [D,A,]>[D,A,] | %7
w: ~ ~ ~ ~ ~|
 [E,A,]>[E,A,] [E,A,]>[E,A,] [E,G,]>[E,G,] [E,B,]>[E,G,] | [A,,A,]6 z2 || A,3 A, A,A, z2 | %10
w: ~ ~ ~ ~ ~ ~ ~ ~|~|~ ~ ~ ~|
 [D,A,][E,A,][F,A,][G,A,] A,2 z2 | [A,,A,]3 [A,,A,] [A,,A,][A,,A,][A,,A,]A, | %12
w: plead it o’er and o’er|~ ~ ~ ~ ~ lay|
 [G,B,][G,B,][F,A,][F,A,] G,2 x2 | [A,,A,]3 [A,,A,] [A,,A,][A,,A,] z2 | %14
w: hold as ne’er be- fore,|~ ~ ~ ~|
 [D,A,][D,A,][D,A,][D,A,] !fermata![D,A,]4 | [A,,A,][A,,C][A,,A,][A,,A,] [D,A,][D,A,][D,A,][D,A,] | %16
w: plead it o’er and o’er;||
 [E,A,]2 E,2 !fermata![A,,E,]2 |] %17
w: |
V:4
 x2 | x8 | x4 A,,2 E,>E, | E,>E, E,>E, E,2 x2 | x8 | x8 | x8 | x8 | x8 || A,3 A, A,A, x2 | %10
 x4 A,2 x2 | x7 A, | x4 (E,D,C,B,,) | x8 | x8 | x8 | x2 E,2 x2 |] %17

